assets/icons/confirmpay.svg

<svg width="16" height="16" viewBox="0 0 16 16" fill="none" xmlns="http://www.w3.org/2000/svg">
<path d="M13.9995 14.666H1.99952C1.64617 14.665 1.30761 14.5242 1.05775 14.2743C0.807903 14.0245 0.667071 13.6859 0.666016 13.3325V3.99905C0.666016 2.86555 1.53252 1.99905 2.66602 1.99905H8.66602V3.33255H2.66602C2.26602 3.33255 1.99952 3.59905 1.99952 3.99905C1.99952 4.39905 2.26602 4.66555 2.66602 4.66555H13.9995C14.733 4.66555 15.333 5.26555 15.333 5.99905V13.3325C15.333 14.066 14.733 14.666 13.9995 14.666ZM1.99952 5.86605V13.3325H13.9995V5.99905H2.66602C2.39952 5.99905 2.19952 5.93255 1.99952 5.86555V5.86605ZM7.33302 12.266L4.39952 9.33255L5.33302 8.39905L7.33302 10.399L10.6665 7.06555L11.6 7.99905L7.33302 12.266ZM13.333 5.99955C13.0665 5.99955 12.8665 5.86605 12.733 5.59955L10.9995 2.19955L3.59952 5.93305C3.33302 6.06655 2.93302 5.93305 2.73302 5.59955C2.59952 5.33305 2.73302 4.93305 3.06652 4.73305L11.0665 0.733046C11.4 0.599546 11.8 0.733046 11.933 0.999546L13.933 4.99955C14.0665 5.33305 13.933 5.73305 13.6665 5.86605C13.533 5.99955 13.4665 5.99955 13.333 5.99955Z" fill="#3971F3"/>
</svg>

<svg xmlns="http://www.w3.org/2000/svg" width="16" height="16" fill="none" data-c="1"><path fill="#3971F3" d="M14 14.666H2a1.337 1.337 0 0 1-1.334-1.334V4c0-1.133.867-2 2-2h6v1.334h-6c-.4 0-.666.266-.666.666s.266.667.666.667H14c.733 0 1.333.6 1.333 1.333v7.334c0 .733-.6 1.333-1.334 1.333m-12-8.8v7.467h12V5.999H2.665C2.4 6 2.2 5.933 2 5.866m5.333 6.4L4.4 9.333l.933-.934 2 2 3.333-3.333.934.933zm6-6.266q-.4 0-.6-.4l-1.734-3.4-7.4 3.733c-.266.134-.666 0-.866-.333-.133-.267 0-.667.334-.867l8-4c.333-.133.733 0 .866.267l2 4c.133.333 0 .733-.267.866-.133.134-.2.134-.333.134"/></svg>
